X: 36067
T: Scartaglen, The
R: reel
M: 4/4
K: Dmajor
|:DFEF D2Ad|cAAG EFGE|DFEF D2Ad|cAGE FDD2|
DFEF D2Ad|cAAG EFGE|d2dc dfed|cAGE D4:|
|:f2fe f2fe|fefg afde|f2fe fage|fdec Add2|
f2fe f2fe|fefg afde|fage d2ed|cAAG EFGE:|

